X: 1
T: Shores of Lough Gowna
B: O'Neill (Music of Ireland: 1850 Melodies) 1903 #1060
B: O'Neill (Dance Music of Ireland: 1001 Gems) 1907; #264
M: 6/8
L: 1/8
R: Jig
K: Bm
|: ~B3 BAF | {G}FEF DFA | ~B3 BAF | d2e fed  \
|  ~B3 BAF | {G}FEF DFA | def gfe | fdB B2A :|
|: def ~a3 |    afb afe | dFA def | ~g3 fdB  \
|  def ~a3 |    afb afe | def geg | fdB {c}B2A :|
